src/epub/images/titlepage.svg

<?xml version="1.0" encoding="utf-8"?>
<svg xmlns="http://www.w3.org/2000/svg" xmlns:svg="http://www.w3.org/2000/svg" version="1.1" viewBox="0 0 1400 440">
	<title>The titlepage for the Standard Ebooks edition of The House on the Borderland, by William Hope Hodgson</title>
	<g>
		<path d="m 408.17909,68.245613 18.33918,0 0,61.754387 17.59064,0 0,-61.754387 18.33919,0 0,-15.438597 -54.26901,0 0,15.438597 z"/>
		<path d="m 491.37353,99.029239 24.88889,0 0,30.970761 17.59065,0 0,-77.192984 -17.59065,0 0,30.783626 -24.88889,0 0,-30.783626 -17.59064,0 0,77.192984 17.59064,0 0,-30.970761 z"/>
		<path d="m 594.21857,52.807016 -44.16375,0 0,77.192984 44.16375,0 0,-15.4386 -26.5731,0 0,-15.532161 25.45029,0 0,-15.438597 -25.45029,0 0,-15.345029 26.5731,0 0,-15.438597 z"/>
		<path d="m 657.50658,99.029239 24.88889,0 0,30.970761 17.59065,0 0,-77.192984 -17.59065,0 0,30.783626 -24.88889,0 0,-30.783626 -17.59064,0 0,77.192984 17.59064,0 0,-30.970761 z"/>
		<path d="m 712.72588,91.356724 c 0,22.549706 16.09357,40.046786 38.92397,40.046786 22.17544,0 38.83041,-17.49708 38.83041,-40.046786 0,-22.549708 -17.4035,-39.953217 -38.83041,-39.953217 -21.23976,0 -38.92397,17.403509 -38.92397,39.953217 z m 18.99415,0 c 0,-11.508772 6.36257,-23.017544 19.92982,-23.017544 13.66082,0 19.83626,11.508772 19.83626,23.017544 0,11.508776 -5.80117,23.017546 -19.83626,23.017546 -14.40935,0 -19.92982,-11.50877 -19.92982,-23.017546 z"/>
		<path d="m 862.56361,52.807016 -17.59064,0 0,44.63158 c 0,12.912284 -3.92983,16.654974 -12.53801,16.654974 -8.60819,0 -12.53802,-3.74269 -12.53802,-16.654974 l 0,-44.63158 -17.59064,0 0,49.777774 c 0,19.08772 10.47953,28.81872 30.12866,28.81872 19.64912,0 30.12865,-9.731 30.12865,-28.81872 l 0,-49.777774 z"/>
		<path d="m 904.4861,51.403507 c -12.44444,0 -25.16959,9.169591 -25.16959,23.578948 0,8.046784 5.4269,15.251462 14.69006,19.836258 9.16959,4.584795 17.40351,7.111107 17.40351,12.725147 0,7.20468 -7.29825,7.57895 -11.13451,7.57895 -8.60818,0 -18.90058,-8.70176 -18.90058,-8.70176 l -8.79532,14.78363 c 0,0 10.94737,10.19883 29.00585,10.19883 15.06432,0 29.09941,-6.45614 29.09941,-24.88889 0,-10.105264 -9.45029,-17.40351 -18.05848,-21.052632 -8.79532,-3.742691 -16.09357,-6.83041 -16.09357,-11.134504 0,-4.210526 3.18129,-6.923976 9.1696,-6.923976 7.95321,0 15.62573,5.333333 15.62573,5.333333 l 7.11111,-14.035088 c 0,0 -9.91813,-7.298246 -23.95322,-7.298246 z"/>
		<path d="m 988.07094,52.807016 -44.16374,0 0,77.192984 44.16374,0 0,-15.4386 -26.5731,0 0,-15.532161 25.45029,0 0,-15.438597 -25.45029,0 0,-15.345029 26.5731,0 0,-15.438597 z"/>
	</g>
	<g>
		<path d="m 130.62791,191.35672 c 0,22.54971 16.09357,40.04679 38.92398,40.04679 22.17544,0 38.83041,-17.49708 38.83041,-40.04679 0,-22.5497 -17.40351,-39.95321 -38.83041,-39.95321 -21.23976,0 -38.92398,17.40351 -38.92398,39.95321 z m 18.99416,0 c 0,-11.50877 6.36257,-23.01754 19.92982,-23.01754 13.66082,0 19.83626,11.50877 19.83626,23.01754 0,11.50878 -5.80117,23.01755 -19.83626,23.01755 -14.40936,0 -19.92982,-11.50877 -19.92982,-23.01755 z"/>
		<path d="m 238.73464,182.09357 0.18713,0 30.69006,47.90643 17.59065,0 0,-77.19298 -17.59065,0 0,47.90643 -0.18713,0 -30.69006,-47.90643 -17.59064,0 0,77.19298 17.59064,0 0,-47.90643 z"/>
		<path d="m 324.59721,168.24561 18.33918,0 0,61.75439 17.59064,0 0,-61.75439 18.33919,0 0,-15.43859 -54.26901,0 0,15.43859 z"/>
		<path d="m 407.79166,199.02924 24.88889,0 0,30.97076 17.59064,0 0,-77.19298 -17.59064,0 0,30.78362 -24.88889,0 0,-30.78362 -17.59064,0 0,77.19298 17.59064,0 0,-30.97076 z"/>
		<path d="m 510.6367,152.80702 -44.16374,0 0,77.19298 44.16374,0 0,-15.4386 -26.5731,0 0,-15.53216 25.4503,0 0,-15.4386 -25.4503,0 0,-15.34503 26.5731,0 0,-15.43859 z"/>
		<path d="m 556.33407,152.80702 0,77.19298 29.28655,0 c 16,0 25.26316,-8.79532 25.26316,-21.52047 0,-12.44444 -6.83041,-17.77778 -16.46783,-19.46199 6.5497,-3.36842 9.63742,-9.45029 9.63742,-16.5614 0,-14.69006 -10.47953,-19.64912 -23.76608,-19.64912 l -23.95322,0 z m 17.59065,30.22222 0,-16.65497 1.40351,0 c 7.67251,0 11.6959,2.33918 11.6959,7.85965 0,6.45614 -4.11696,8.79532 -11.6959,8.79532 l -1.40351,0 z m 0,33.40351 0,-18.24562 5.52047,0 c 8.32748,0 12.91228,2.52632 12.91228,9.63743 0,6.08187 -4.5848,8.60819 -12.91228,8.60819 l -5.52047,0 z"/>
		<path d="m 620.18932,191.35672 c 0,22.54971 16.09356,40.04679 38.92397,40.04679 22.17544,0 38.83041,-17.49708 38.83041,-40.04679 0,-22.5497 -17.40351,-39.95321 -38.83041,-39.95321 -21.23976,0 -38.92397,17.40351 -38.92397,39.95321 z m 18.99415,0 c 0,-11.50877 6.36257,-23.01754 19.92982,-23.01754 13.66082,0 19.83626,11.50877 19.83626,23.01754 0,11.50878 -5.80117,23.01755 -19.83626,23.01755 -14.40935,0 -19.92982,-11.50877 -19.92982,-23.01755 z"/>
		<path d="m 710.70538,152.80702 0,77.19298 17.59065,0 0,-30.50292 23.57894,30.50292 22.36258,0 -26.5731,-31.90643 c 9.45029,-2.99416 15.81286,-10.76024 15.81286,-22.36258 0,-15.15789 -10.8538,-22.92397 -25.16959,-22.92397 l -27.60234,0 z m 17.59065,34.24561 0,-20.21053 2.05847,0 c 6.64328,0 14.5965,0.46784 14.5965,10.10527 0,9.63742 -7.95322,10.10526 -14.5965,10.10526 l -2.05847,0 z"/>
		<path d="m 782.77411,152.80702 0,77.19298 22.36257,0 c 21.23977,0 38.92398,-16.09357 38.92398,-38.64328 0,-22.45614 -17.77778,-38.5497 -38.92398,-38.5497 l -22.36257,0 z m 17.59064,61.47368 0,-45.75439 2.71345,0 c 13.09942,0 21.98831,10.0117 21.98831,22.92398 -0.0936,12.91228 -8.98246,22.83041 -21.98831,22.83041 l -2.71345,0 z"/>
		<path d="m 901.01683,152.80702 -44.16374,0 0,77.19298 44.16374,0 0,-15.4386 -26.5731,0 0,-15.53216 25.45029,0 0,-15.4386 -25.45029,0 0,-15.34503 26.5731,0 0,-15.43859 z"/>
		<path d="m 916.12939,152.80702 0,77.19298 17.59065,0 0,-30.50292 23.57894,30.50292 22.36258,0 -26.5731,-31.90643 c 9.45029,-2.99416 15.81286,-10.76024 15.81286,-22.36258 0,-15.15789 -10.8538,-22.92397 -25.16959,-22.92397 l -27.60234,0 z m 17.59065,34.24561 0,-20.21053 2.05848,0 c 6.64327,0 14.59649,0.46784 14.59649,10.10527 0,9.63742 -7.95322,10.10526 -14.59649,10.10526 l -2.05848,0 z"/>
		<path d="m 1005.7888,152.80702 -17.59068,0 0,77.19298 44.16378,0 0,-15.4386 -26.5731,0 0,-61.75438 z"/>
		<path d="m 1086.6791,152.80702 -16.2807,0 -31.1579,77.19298 18.9006,0 5.7076,-15.4386 29.3801,0 5.7076,15.4386 18.9006,0 -31.1579,-77.19298 z m 0.5614,46.31579 -17.4035,0 8.6082,-22.45614 0.1871,0 8.6082,22.45614 z"/>
		<path d="m 1143.3472,182.09357 0.1872,0 30.69,47.90643 17.5907,0 0,-77.19298 -17.5907,0 0,47.90643 -0.1871,0 -30.6901,-47.90643 -17.5906,0 0,77.19298 17.5906,0 0,-47.90643 z"/>
		<path d="m 1208.0593,152.80702 0,77.19298 22.3625,0 c 21.2398,0 38.924,-16.09357 38.924,-38.64328 0,-22.45614 -17.7778,-38.5497 -38.924,-38.5497 l -22.3625,0 z m 17.5906,61.47368 0,-45.75439 2.7135,0 c 13.0994,0 21.9883,10.0117 21.9883,22.92398 -0.094,12.91228 -8.9825,22.83041 -21.9883,22.83041 l -2.7135,0 z"/>
	</g>
	<g>
		<path d="m 224.36349,390 14.59649,0 16.49123,-57.89474 -14.59649,0 -9.89474,39.7193 -0.35088,0 -10.52631,-39.7193 -9.96491,0 -10.52632,39.7193 -0.35088,0 -9.89473,-39.7193 -14.66667,0 16.49123,57.89474 14.66667,0 9.26315,-32.49123 L 224.36349,390 Z"/>
		<path d="m 276.80867,332.10526 -13.19298,0 0,57.89474 13.19298,0 0,-57.89474 z"/>
		<path d="m 303.46437,332.10526 -13.19298,0 0,57.89474 33.1228,0 0,-11.57895 -19.92982,0 0,-46.31579 z"/>
		<path d="m 348.07512,332.10526 -13.19298,0 0,57.89474 33.1228,0 0,-11.57895 -19.92982,0 0,-46.31579 z"/>
		<path d="m 392.68587,332.10526 -13.19299,0 0,57.89474 13.19299,0 0,-57.89474 z"/>
		<path d="m 435.55209,332.10526 -12.21052,0 L 399.97315,390 l 14.17543,0 4.28071,-11.57895 22.03508,0 4.28071,11.57895 14.17543,0 -23.36842,-57.89474 z m 0.42106,34.73685 -13.05264,0 6.45614,-16.84211 0.14036,0 6.45614,16.84211 z"/>
		<path d="m 513.96984,390 13.19298,0 -5.19298,-57.89474 -14.03509,0 -12.8421,33.40351 -12.84211,-33.40351 -14.03508,0 -5.19299,57.89474 13.19299,0 2.73684,-34.31579 0.35088,0 11.85965,33.96491 7.85964,0 11.85965,-33.96491 0.35088,0 L 513.96984,390 Z"/>
		<path d="m 574.82948,366.77193 18.66667,0 0,23.22807 13.19298,0 0,-57.89474 -13.19298,0 0,23.08772 -18.66667,0 0,-23.08772 -13.19298,0 0,57.89474 13.19298,0 0,-23.22807 z"/>
		<path d="m 617.49396,361.01754 c 0,16.91228 12.07017,30.03509 29.19298,30.03509 16.63158,0 29.12281,-13.12281 29.12281,-30.03509 0,-16.91228 -13.05263,-29.96491 -29.12281,-29.96491 -15.92982,0 -29.19298,13.05263 -29.19298,29.96491 z m 14.24561,0 c 0,-8.63157 4.77193,-17.26315 14.94737,-17.26315 10.24561,0 14.87719,8.63158 14.87719,17.26315 0,8.63158 -4.35087,17.26316 -14.87719,17.26316 -10.80702,0 -14.94737,-8.63158 -14.94737,-17.26316 z"/>
		<path d="m 686.63104,332.10526 0,57.89474 13.19298,0 0,-21.47368 7.92982,0 c 11.29825,0 19.78948,-6.66667 19.78948,-18.5965 0,-11.99999 -8.49123,-17.82456 -19.78948,-17.82456 l -21.1228,0 z M 699.82402,358 l 0,-15.36842 3.7193,0 c 5.19298,0 10.10526,1.75439 10.10526,7.7193 0,5.89473 -4.91228,7.64912 -10.10526,7.64912 l -3.7193,0 z"/>
		<path d="m 771.49176,332.10526 -33.12281,0 0,57.89474 33.12281,0 0,-11.57895 -19.92983,0 0,-11.64912 19.08772,0 0,-11.57895 -19.08772,0 0,-11.50877 19.92983,0 0,-11.57895 z"/>
		<path d="m 821.45781,366.77193 18.66667,0 0,23.22807 13.19298,0 0,-57.89474 -13.19298,0 0,23.08772 -18.66667,0 0,-23.08772 -13.19298,0 0,57.89474 13.19298,0 0,-23.22807 z"/>
		<path d="m 864.12225,361.01754 c 0,16.91228 12.07018,30.03509 29.19299,30.03509 16.63157,0 29.1228,-13.12281 29.1228,-30.03509 0,-16.91228 -13.05263,-29.96491 -29.1228,-29.96491 -15.92983,0 -29.19299,13.05263 -29.19299,29.96491 z m 14.24562,0 c 0,-8.63157 4.77193,-17.26315 14.94737,-17.26315 10.24561,0 14.87719,8.63158 14.87719,17.26315 0,8.63158 -4.35088,17.26316 -14.87719,17.26316 -10.80702,0 -14.94737,-8.63158 -14.94737,-17.26316 z"/>
		<path d="m 933.25933,332.10526 0,57.89474 16.77193,0 c 15.92983,0 29.19299,-12.07018 29.19299,-28.98246 0,-16.8421 -13.33334,-28.91228 -29.19299,-28.91228 l -16.77193,0 z m 13.19299,46.10527 0,-34.31579 2.03508,0 c 9.82456,0 16.49123,7.50877 16.49123,17.19298 -0.0702,9.68421 -6.73684,17.12281 -16.49123,17.12281 l -2.03508,0 z"/>
		<path d="m 1042.4194,357.57895 -26.7368,0 0,10.17544 13.3333,0 c 0,7.08772 -6.2456,11.15789 -12.5614,11.15789 -8.1403,0 -14.7368,-8 -14.7368,-17.82456 0,-10.03509 6.5965,-18.10526 14.7368,-18.10526 5.1228,0 9.5439,2.03508 12.9123,7.43859 l 8.6316,-9.47368 c -5.0527,-6.10526 -12.1404,-9.89474 -22.3158,-9.89474 -16.28073,0 -28.21055,13.40351 -28.21055,30.03509 0,16.5614 12.63155,29.96491 28.21055,29.96491 11.3684,0 23.5789,-6.24561 26.7368,-20.91228 l 0,-12.5614 z"/>
		<path d="m 1073.1453,331.05263 c -9.3334,0 -18.8772,6.8772 -18.8772,17.68421 0,6.03509 4.0702,11.4386 11.0175,14.8772 6.8772,3.43859 13.0527,5.33333 13.0527,9.54385 0,5.40351 -5.4737,5.68422 -8.3509,5.68422 -6.4562,0 -14.1755,-6.52632 -14.1755,-6.52632 l -6.5964,11.08772 c 0,0 8.2105,7.64912 21.7543,7.64912 11.2983,0 21.8246,-4.8421 21.8246,-18.66666 0,-7.57895 -7.0877,-13.05264 -13.5439,-15.78948 -6.5964,-2.80702 -12.0701,-5.12281 -12.0701,-8.35088 0,-3.15789 2.3859,-5.19298 6.8772,-5.19298 5.9649,0 11.7193,4 11.7193,4 l 5.3333,-10.52631 c 0,0 -7.4386,-5.47369 -17.9649,-5.47369 z"/>
		<path d="m 1101.3646,361.01754 c 0,16.91228 12.0701,30.03509 29.1929,30.03509 16.6316,0 29.1229,-13.12281 29.1229,-30.03509 0,-16.91228 -13.0527,-29.96491 -29.1229,-29.96491 -15.9298,0 -29.1929,13.05263 -29.1929,29.96491 z m 14.2456,0 c 0,-8.63157 4.7719,-17.26315 14.9473,-17.26315 10.2457,0 14.8772,8.63158 14.8772,17.26315 0,8.63158 -4.3508,17.26316 -14.8772,17.26316 -10.807,0 -14.9473,-8.63158 -14.9473,-17.26316 z"/>
		<path d="m 1183.6946,354.07018 0.1404,0 23.0175,35.92982 13.193,0 0,-57.89474 -13.193,0 0,35.92983 -0.1403,0 -23.0176,-35.92983 -13.193,0 0,57.89474 13.193,0 0,-35.92982 z"/>
	</g>
</svg>

<?xml version="1.0" encoding="utf-8"?>
<svg xmlns="http://www.w3.org/2000/svg" xmlns:svg="http://www.w3.org/2000/svg" version="1.1" viewBox="0 0 1400 440">
	<title>The titlepage for the Standard Ebooks edition of The House on the Borderland, by William Hope Hodgson</title>
	<g aria-label="THE HOUSE">
		<path d="m 408.17909,68.245613 h 18.33918 V 130 h 17.59064 V 68.245613 H 462.4481 V 52.807016 h -54.26901 z"/>
		<path d="m 491.37353,99.029239 h 24.88889 V 130 h 17.59065 V 52.807016 H 516.26242 V 83.590642 H 491.37353 V 52.807016 H 473.78289 V 130 h 17.59064 z"/>
		<path d="M 594.21857,52.807016 H 550.05482 V 130 h 44.16375 v -15.4386 h -26.5731 V 99.029239 h 25.45029 V 83.590642 H 567.64547 V 68.245613 h 26.5731 z"/>
		<path d="m 657.50658,99.029239 h 24.88889 V 130 h 17.59065 V 52.807016 H 682.39547 V 83.590642 H 657.50658 V 52.807016 H 639.91594 V 130 h 17.59064 z"/>
		<path d="m 712.72588,91.356724 c 0,22.549706 16.09357,40.046786 38.92397,40.046786 22.17544,0 38.83041,-17.49708 38.83041,-40.046786 0,-22.549708 -17.4035,-39.953217 -38.83041,-39.953217 -21.23976,0 -38.92397,17.403509 -38.92397,39.953217 z m 18.99415,0 c 0,-11.508772 6.36257,-23.017544 19.92982,-23.017544 13.66082,0 19.83626,11.508772 19.83626,23.017544 0,11.508776 -5.80117,23.017546 -19.83626,23.017546 -14.40935,0 -19.92982,-11.50877 -19.92982,-23.017546 z"/>
		<path d="m 862.56361,52.807016 h -17.59064 v 44.63158 c 0,12.912284 -3.92983,16.654974 -12.53801,16.654974 -8.60819,0 -12.53802,-3.74269 -12.53802,-16.654974 V 52.807016 H 802.3063 v 49.777774 c 0,19.08772 10.47953,28.81872 30.12866,28.81872 19.64912,0 30.12865,-9.731 30.12865,-28.81872 z"/>
		<path d="m 904.4861,51.403507 c -12.44444,0 -25.16959,9.169591 -25.16959,23.578948 0,8.046784 5.4269,15.251462 14.69006,19.836258 9.16959,4.584795 17.40351,7.111107 17.40351,12.725147 0,7.20468 -7.29825,7.57895 -11.13451,7.57895 -8.60818,0 -18.90058,-8.70176 -18.90058,-8.70176 l -8.79532,14.78363 c 0,0 10.94737,10.19883 29.00585,10.19883 15.06432,0 29.09941,-6.45614 29.09941,-24.88889 0,-10.105264 -9.45029,-17.40351 -18.05848,-21.052632 -8.79532,-3.742691 -16.09357,-6.83041 -16.09357,-11.134504 0,-4.210526 3.18129,-6.923976 9.1696,-6.923976 7.95321,0 15.62573,5.333333 15.62573,5.333333 l 7.11111,-14.035088 c 0,0 -9.91813,-7.298246 -23.95322,-7.298246 z"/>
		<path d="M 988.07094,52.807016 H 943.9072 V 130 h 44.16374 v -15.4386 h -26.5731 V 99.029239 h 25.45029 V 83.590642 H 961.49784 V 68.245613 h 26.5731 z"/>
	</g>
	<g aria-label="ON THE BORDERLAND">
		<path d="m 130.62791,191.35672 c 0,22.54971 16.09357,40.04679 38.92398,40.04679 22.17544,0 38.83041,-17.49708 38.83041,-40.04679 0,-22.5497 -17.40351,-39.95321 -38.83041,-39.95321 -21.23976,0 -38.92398,17.40351 -38.92398,39.95321 z m 18.99416,0 c 0,-11.50877 6.36257,-23.01754 19.92982,-23.01754 13.66082,0 19.83626,11.50877 19.83626,23.01754 0,11.50878 -5.80117,23.01755 -19.83626,23.01755 -14.40936,0 -19.92982,-11.50877 -19.92982,-23.01755 z"/>
		<path d="m 238.73464,182.09357 h 0.18713 L 269.61183,230 h 17.59065 v -77.19298 h -17.59065 v 47.90643 H 269.4247 L 238.73464,152.80702 H 221.144 V 230 h 17.59064 z"/>
		<path d="m 324.59721,168.24561 h 18.33918 V 230 h 17.59064 v -61.75439 h 18.33919 v -15.43859 h -54.26901 z"/>
		<path d="m 407.79166,199.02924 h 24.88889 V 230 h 17.59064 v -77.19298 h -17.59064 v 30.78362 H 407.79166 V 152.80702 H 390.20102 V 230 h 17.59064 z"/>
		<path d="M 510.6367,152.80702 H 466.47296 V 230 h 44.16374 v -15.4386 h -26.5731 v -15.53216 h 25.4503 v -15.4386 h -25.4503 v -15.34503 h 26.5731 z"/>
		<path d="M 556.33407,152.80702 V 230 h 29.28655 c 16,0 25.26316,-8.79532 25.26316,-21.52047 0,-12.44444 -6.83041,-17.77778 -16.46783,-19.46199 6.5497,-3.36842 9.63742,-9.45029 9.63742,-16.5614 0,-14.69006 -10.47953,-19.64912 -23.76608,-19.64912 z m 17.59065,30.22222 v -16.65497 h 1.40351 c 7.67251,0 11.6959,2.33918 11.6959,7.85965 0,6.45614 -4.11696,8.79532 -11.6959,8.79532 z m 0,33.40351 v -18.24562 h 5.52047 c 8.32748,0 12.91228,2.52632 12.91228,9.63743 0,6.08187 -4.5848,8.60819 -12.91228,8.60819 z"/>
		<path d="m 620.18932,191.35672 c 0,22.54971 16.09356,40.04679 38.92397,40.04679 22.17544,0 38.83041,-17.49708 38.83041,-40.04679 0,-22.5497 -17.40351,-39.95321 -38.83041,-39.95321 -21.23976,0 -38.92397,17.40351 -38.92397,39.95321 z m 18.99415,0 c 0,-11.50877 6.36257,-23.01754 19.92982,-23.01754 13.66082,0 19.83626,11.50877 19.83626,23.01754 0,11.50878 -5.80117,23.01755 -19.83626,23.01755 -14.40935,0 -19.92982,-11.50877 -19.92982,-23.01755 z"/>
		<path d="M 710.70538,152.80702 V 230 h 17.59065 V 199.49708 L 751.87497,230 h 22.36258 l -26.5731,-31.90643 c 9.45029,-2.99416 15.81286,-10.76024 15.81286,-22.36258 0,-15.15789 -10.8538,-22.92397 -25.16959,-22.92397 z m 17.59065,34.24561 V 166.8421 h 2.05847 c 6.64328,0 14.5965,0.46784 14.5965,10.10527 0,9.63742 -7.95322,10.10526 -14.5965,10.10526 z"/>
		<path d="M 782.77411,152.80702 V 230 h 22.36257 c 21.23977,0 38.92398,-16.09357 38.92398,-38.64328 0,-22.45614 -17.77778,-38.5497 -38.92398,-38.5497 z m 17.59064,61.47368 v -45.75439 h 2.71345 c 13.09942,0 21.98831,10.0117 21.98831,22.92398 -0.0936,12.91228 -8.98246,22.83041 -21.98831,22.83041 z"/>
		<path d="M 901.01683,152.80702 H 856.85309 V 230 h 44.16374 v -15.4386 h -26.5731 v -15.53216 h 25.45029 v -15.4386 h -25.45029 v -15.34503 h 26.5731 z"/>
		<path d="M 916.12939,152.80702 V 230 h 17.59065 V 199.49708 L 957.29898,230 h 22.36258 l -26.5731,-31.90643 c 9.45029,-2.99416 15.81286,-10.76024 15.81286,-22.36258 0,-15.15789 -10.8538,-22.92397 -25.16959,-22.92397 z m 17.59065,34.24561 V 166.8421 h 2.05848 c 6.64327,0 14.59649,0.46784 14.59649,10.10527 0,9.63742 -7.95322,10.10526 -14.59649,10.10526 z"/>
		<path d="M 1005.7888,152.80702 H 988.19812 V 230 h 44.16378 v -15.4386 h -26.5731 z"/>
		<path d="m 1086.6791,152.80702 h -16.2807 L 1039.2405,230 h 18.9006 l 5.7076,-15.4386 h 29.3801 L 1098.9364,230 h 18.9006 z m 0.5614,46.31579 h -17.4035 l 8.6082,-22.45614 h 0.1871 z"/>
		<path d="m 1143.3472,182.09357 h 0.1872 L 1174.2244,230 h 17.5907 v -77.19298 h -17.5907 v 47.90643 h -0.1871 l -30.6901,-47.90643 h -17.5906 V 230 h 17.5906 z"/>
		<path d="M 1208.0593,152.80702 V 230 h 22.3625 c 21.2398,0 38.924,-16.09357 38.924,-38.64328 0,-22.45614 -17.7778,-38.5497 -38.924,-38.5497 z m 17.5906,61.47368 v -45.75439 h 2.7135 c 13.0994,0 21.9883,10.0117 21.9883,22.92398 -0.094,12.91228 -8.9825,22.83041 -21.9883,22.83041 z"/>
	</g>
	<g aria-label="WILLIAM HOPE HODGSON">
		<path d="m 224.36349,390 h 14.59649 l 16.49123,-57.89474 h -14.59649 l -9.89474,39.7193 h -0.35088 l -10.52631,-39.7193 h -9.96491 l -10.52632,39.7193 h -0.35088 l -9.89473,-39.7193 H 174.67928 L 191.17051,390 h 14.66667 l 9.26315,-32.49123 z"/>
		<path d="M 276.80867,332.10526 H 263.61569 V 390 h 13.19298 z"/>
		<path d="M 303.46437,332.10526 H 290.27139 V 390 h 33.1228 v -11.57895 h -19.92982 z"/>
		<path d="M 348.07512,332.10526 H 334.88214 V 390 h 33.1228 v -11.57895 h -19.92982 z"/>
		<path d="M 392.68587,332.10526 H 379.49288 V 390 h 13.19299 z"/>
		<path d="M 435.55209,332.10526 H 423.34157 L 399.97315,390 h 14.17543 l 4.28071,-11.57895 h 22.03508 L 444.74508,390 h 14.17543 z m 0.42106,34.73685 H 422.92051 L 429.37665,350 h 0.14036 z"/>
		<path d="m 513.96984,390 h 13.19298 l -5.19298,-57.89474 h -14.03509 l -12.8421,33.40351 -12.84211,-33.40351 H 468.21546 L 463.02247,390 h 13.19299 l 2.73684,-34.31579 h 0.35088 l 11.85965,33.96491 h 7.85964 l 11.85965,-33.96491 h 0.35088 z"/>
		<path d="m 574.82948,366.77193 h 18.66667 V 390 h 13.19298 v -57.89474 h -13.19298 v 23.08772 H 574.82948 V 332.10526 H 561.6365 V 390 h 13.19298 z"/>
		<path d="m 617.49396,361.01754 c 0,16.91228 12.07017,30.03509 29.19298,30.03509 16.63158,0 29.12281,-13.12281 29.12281,-30.03509 0,-16.91228 -13.05263,-29.96491 -29.12281,-29.96491 -15.92982,0 -29.19298,13.05263 -29.19298,29.96491 z m 14.24561,0 c 0,-8.63157 4.77193,-17.26315 14.94737,-17.26315 10.24561,0 14.87719,8.63158 14.87719,17.26315 0,8.63158 -4.35087,17.26316 -14.87719,17.26316 -10.80702,0 -14.94737,-8.63158 -14.94737,-17.26316 z"/>
		<path d="M 686.63104,332.10526 V 390 h 13.19298 v -21.47368 h 7.92982 c 11.29825,0 19.78948,-6.66667 19.78948,-18.5965 0,-11.99999 -8.49123,-17.82456 -19.78948,-17.82456 z M 699.82402,358 v -15.36842 h 3.7193 c 5.19298,0 10.10526,1.75439 10.10526,7.7193 0,5.89473 -4.91228,7.64912 -10.10526,7.64912 z"/>
		<path d="M 771.49176,332.10526 H 738.36895 V 390 h 33.12281 v -11.57895 h -19.92983 v -11.64912 h 19.08772 v -11.57895 h -19.08772 v -11.50877 h 19.92983 z"/>
		<path d="m 821.45781,366.77193 h 18.66667 V 390 h 13.19298 v -57.89474 h -13.19298 v 23.08772 H 821.45781 V 332.10526 H 808.26483 V 390 h 13.19298 z"/>
		<path d="m 864.12225,361.01754 c 0,16.91228 12.07018,30.03509 29.19299,30.03509 16.63157,0 29.1228,-13.12281 29.1228,-30.03509 0,-16.91228 -13.05263,-29.96491 -29.1228,-29.96491 -15.92983,0 -29.19299,13.05263 -29.19299,29.96491 z m 14.24562,0 c 0,-8.63157 4.77193,-17.26315 14.94737,-17.26315 10.24561,0 14.87719,8.63158 14.87719,17.26315 0,8.63158 -4.35088,17.26316 -14.87719,17.26316 -10.80702,0 -14.94737,-8.63158 -14.94737,-17.26316 z"/>
		<path d="M 933.25933,332.10526 V 390 h 16.77193 c 15.92983,0 29.19299,-12.07018 29.19299,-28.98246 0,-16.8421 -13.33334,-28.91228 -29.19299,-28.91228 z m 13.19299,46.10527 v -34.31579 h 2.03508 c 9.82456,0 16.49123,7.50877 16.49123,17.19298 -0.0702,9.68421 -6.73684,17.12281 -16.49123,17.12281 z"/>
		<path d="m 1042.4194,357.57895 h -26.7368 v 10.17544 h 13.3333 c 0,7.08772 -6.2456,11.15789 -12.5614,11.15789 -8.1403,0 -14.7368,-8 -14.7368,-17.82456 0,-10.03509 6.5965,-18.10526 14.7368,-18.10526 5.1228,0 9.5439,2.03508 12.9123,7.43859 l 8.6316,-9.47368 c -5.0527,-6.10526 -12.1404,-9.89474 -22.3158,-9.89474 -16.28073,0 -28.21055,13.40351 -28.21055,30.03509 0,16.5614 12.63155,29.96491 28.21055,29.96491 11.3684,0 23.5789,-6.24561 26.7368,-20.91228 z"/>
		<path d="m 1073.1453,331.05263 c -9.3334,0 -18.8772,6.8772 -18.8772,17.68421 0,6.03509 4.0702,11.4386 11.0175,14.8772 6.8772,3.43859 13.0527,5.33333 13.0527,9.54385 0,5.40351 -5.4737,5.68422 -8.3509,5.68422 -6.4562,0 -14.1755,-6.52632 -14.1755,-6.52632 l -6.5964,11.08772 c 0,0 8.2105,7.64912 21.7543,7.64912 11.2983,0 21.8246,-4.8421 21.8246,-18.66666 0,-7.57895 -7.0877,-13.05264 -13.5439,-15.78948 -6.5964,-2.80702 -12.0701,-5.12281 -12.0701,-8.35088 0,-3.15789 2.3859,-5.19298 6.8772,-5.19298 5.9649,0 11.7193,4 11.7193,4 l 5.3333,-10.52631 c 0,0 -7.4386,-5.47369 -17.9649,-5.47369 z"/>
		<path d="m 1101.3646,361.01754 c 0,16.91228 12.0701,30.03509 29.1929,30.03509 16.6316,0 29.1229,-13.12281 29.1229,-30.03509 0,-16.91228 -13.0527,-29.96491 -29.1229,-29.96491 -15.9298,0 -29.1929,13.05263 -29.1929,29.96491 z m 14.2456,0 c 0,-8.63157 4.7719,-17.26315 14.9473,-17.26315 10.2457,0 14.8772,8.63158 14.8772,17.26315 0,8.63158 -4.3508,17.26316 -14.8772,17.26316 -10.807,0 -14.9473,-8.63158 -14.9473,-17.26316 z"/>
		<path d="m 1183.6946,354.07018 h 0.1404 L 1206.8525,390 h 13.193 v -57.89474 h -13.193 v 35.92983 h -0.1403 l -23.0176,-35.92983 h -13.193 V 390 h 13.193 z"/>
	</g>
</svg>
